X:1
T:Title
%%score { ( 1 3 ) | ( 2 4 ) }
L:1/8
M:4/4
K:Ab
V:1 treble nm="Grand Piano"
V:3 treble 
V:2 bass 
V:4 bass 
V:1
 z4 z2[Q:1/4=72] [CE]2 | [Ec]3 [Ec] [DB][CA][DF][DA] | [CE]4- [CE][CE][CF][CA] | [DG]4- [DG]EGd | %4
[M:3/4] c6 |[M:1/4] [CE]2 |[M:4/4] [Ec]3 [Ec] [DB][CA][DF][DA] | [CE]6 [Ec]2 | %8
 [EB]3 [EB] [=Dc] [DB]3 |[M:3/4] B6 |[M:1/4] GA |[M:4/4] B2 B2 z2 AB | c2 c2 z2 [EA]2 | %13
 [Ed]3 [Ec] [=DB][DA][DG][DA] |[M:3/4] B6 |[M:1/4] EE |[M:4/4] [Ee]3 [Ed] [Ec][DB][CA][CE] | %17
 [DF]6 [EA]>[FB] | c3 c B B3 |[M:3/4] [CA]6 |] %20
V:2
 z4 z2 [A,,A,]2 | [A,,A,]3 [A,,A,] [A,,E,][A,,E,][A,,A,][A,,F,] | %2
 [A,,A,]4- [A,,A,][A,,A,][A,,A,][A,,E,] | [B,,E,]4- [B,,E,][E,G,D][E,B,D][E,G,F] |[M:3/4] [A,E]6 | %5
[M:1/4] [A,,A,]2 |[M:4/4] [A,,A,]3 [A,,A,] [A,,E,][A,,E,][A,,A,][A,,F,] | [A,,A,]6 [A,,A,]2 | %8
 [B,,G,]3 [B,,G,] [B,,F,] [B,,A,]3 |[M:3/4] [E,G,E]6 |[M:1/4] [E,B,D][E,A,C] | %11
[M:4/4] [E,G,D]2 [E,G,D]2 z2 [F,A,C][E,G,E] | [A,E]2 [A,E]2 z2 [C,A,]2 | %13
 [B,,G,]3 [A,,A,] [B,,F,][B,,F,][B,,B,][B,,A,] |[M:3/4] [E,G,E][E,G,] [F,A,][F,A,] [E,G,]2 | %15
[M:1/4] D z |[M:4/4] [C,A,]3 [B,,G,] [A,,A,][A,,E,][A,,E,][A,,A,] | [D,A,]6 [C,A,]>[D,A,] | %18
 [E,A,E]3 [E,A,E] [E,G,D] [E,G,D]3 |[M:3/4] [A,,E,A,]6 |] %20
V:3
 x8 | x8 | x8 | x8 |[M:3/4] x6 |[M:1/4] x2 |[M:4/4] x8 | x8 | x8 |[M:3/4] x6 |[M:1/4] x2 | %11
[M:4/4] x8 | x8 | x8 |[M:3/4] z E =DD _D2 |[M:1/4] x2 |[M:4/4] x8 | x8 | x8 |[M:3/4] x6 |] %20
V:4
 x8 | x8 | x8 | x8 |[M:3/4] x6 |[M:1/4] x2 |[M:4/4] x8 | x8 | x8 |[M:3/4] x6 |[M:1/4] x2 | %11
[M:4/4] x8 | x8 | x8 |[M:3/4] x6 |[M:1/4] [E,G,]2 |[M:4/4] x8 | x8 | x8 |[M:3/4] x6 |] %20

